X: 101
T: The Wise Maid
M:C|
R:reel
K:D
"D"~F3G FEDE|FAAB AFED|"G"d2 (3efg "D"fdec|"G"dBAF "A"BE~E2|
"D"~F3G FEDE|FAAB AFED|"G"d2 (3efg "D"fdec|1 "G"dBAG "D"FD ~D2:|2 "G"dBAG "D"FDFA||
|:"D"d2AG FDFA|dfaf "A7"gfeg|"D"fAdf "A"eAce|"D"dfed "A"cA~A2|
"G"BDGB "D"ADFA|dfaf "G"gfed|(3Bcd ce "D"dBAG|1 "A"FGEF "D"DEFA:|2 "A"FGEG "D"FDDE||


